X:135
T:The Broadstairs Barn-dance
C:Colin Hume, 1984
L:1/8
M:4/4
R:Reel
S:Colin Hume's website,  colinhume.com  - chords can also be printed below the stave.
Q:1/4=130
%%MIDI chordname dim 0 3 6 9
%%MIDI program 57     Trombone
%%MIDI chordprog 60   French Horn
%%MIDI bassprog 58    Tuba
K:G
P:A
"G"B2G2 "E7"c2B2 | "A7"A>EE>E E4 | "D"F>ED>F A2F2 | "A"E4 "D"D>E (3FGA |\
"G"B2G2 "E7"c2B2 | "A7"A>EE>E E4 | "D"F>ED>F "D7"A2F2 | "G"G8 |
P:B
"D7"A2A2 A<d-d2 | "G"B2B2 B<d-d2 | "A7"^c>BA>c e2c2 | "D"d4 "D7"=c4 |\
"G"B2G2 "E7/G#"c2B2 | "Am"A>^GA>c "Gdim/C#"e4 | "G/D"d>BG>E "Bm"D2B2 | "D7"A4 "G"G4 |]

